src/components/Icon/assets/cart.svg

<svg width="24" height="24" viewBox="0 0 24 24" fill="none" xmlns="http://www.w3.org/2000/svg">
<path fill-rule="evenodd" clip-rule="evenodd" d="M7.8951 15.0001H18.1051L18.8831 8.00012H7.1171L7.8951 15.0001ZM6.61109 3.44412L6.89509 6.00012H20.5591C20.8561 6.00012 21.0881 6.25912 21.0561 6.55612L19.9441 16.5561C19.9171 16.8091 19.7021 17.0001 19.4481 17.0001H6.55309C6.29809 17.0001 6.08409 16.8091 6.05609 16.5561L4.77209 5.00012H2.00009V3.00012H6.11409C6.36909 3.00012 6.58309 3.19112 6.61109 3.44412ZM8.00018 18.0001C6.90018 18.0001 6.00018 18.9001 6.00018 20.0001C6.00018 21.1001 6.90018 22.0001 8.00018 22.0001C9.10018 22.0001 10.0002 21.1001 10.0002 20.0001C10.0002 18.9001 9.10018 18.0001 8.00018 18.0001ZM18.0002 18.0001C16.9002 18.0001 16.0002 18.9001 16.0002 20.0001C16.0002 21.1001 16.9002 22.0001 18.0002 22.0001C19.1002 22.0001 20.0002 21.1001 20.0002 20.0001C20.0002 18.9001 19.1002 18.0001 18.0002 18.0001Z" fill="#65676A"/>
</svg>

<svg xmlns="http://www.w3.org/2000/svg" width="24" height="24" viewBox="0 0 24 24">
    <path fill="#65676A" fill-rule="evenodd" d="M8 18c1.1 0 2 .9 2 2s-.9 2-2 2-2-.9-2-2 .9-2 2-2zm10 0c1.1 0 2 .9 2 2s-.9 2-2 2-2-.9-2-2 .9-2 2-2zM6.114 3c.255 0 .47.191.497.444L6.895 6H20.56c.297 0 .53.26.497.556l-1.112 10c-.027.253-.242.444-.496.444H6.553c-.255 0-.469-.19-.497-.444L4.772 5H2V3zm12.77 5H7.116l.778 7h10.21l.778-7z"/>
</svg>
